Numix-Circle/48x48/apps/emerald-decorator.svg

<svg xmlns="http://www.w3.org/2000/svg" width="48" viewBox="0 0 13.546667 13.546667" height="48">
 <defs>
  <linearGradient id="linearGradient4033" x1="-27" x2="-24" gradientUnits="userSpaceOnUse">
   <stop style="stop-color:#e4e4e4;stop-opacity:1"/>
   <stop offset="1" style="stop-color:#eee;stop-opacity:1"/>
  </linearGradient>
  <linearGradient y2="3.621" x2="23.668" y1="36.865" x1="23.295" gradientTransform="scale(0.28222223,0.28222223)" gradientUnits="userSpaceOnUse" id="linearGradient3901">
   <stop style="stop-color:#5bcc01;stop-opacity:1"/>
   <stop offset="1" style="stop-color:#b7fb3b;stop-opacity:0"/>
  </linearGradient>
 </defs>
 <g>
  <path d="m 25 2 c -12.703 0 -23 10.297 -23 23 0 6.367 2.601 12.12 6.781 16.281 4.085 3.712 9.514 5.969 15.469 5.969 c 12.703 0 23 -10.297 23 -23 0 -5.954 -2.256 -11.384 -5.969 -15.469 c -4.165 -4.181 -9.914 -6.781 -16.281 -6.781 z m 16.281 6.781 c 3.854 4.113 6.219 9.637 6.219 15.719 c 0 12.703 -10.297 23 -23 23 c -6.081 0 -11.606 -2.364 -15.719 -6.219 4.16 4.144 9.883 6.719 16.219 6.719 12.703 0 23 -10.297 23 -23 0 -6.335 -2.575 -12.06 -6.719 -16.219 z" transform="scale(0.28222223,0.28222223)" style="fill:#000;opacity:0.05;fill-opacity:1;stroke:none"/>
  <path d="m 41.28 8.781 c 3.712 4.085 5.969 9.514 5.969 15.469 c 0 12.703 -10.297 23 -23 23 -5.954 0 -11.384 -2.256 -15.469 -5.969 c 4.113 3.854 9.637 6.219 15.719 6.219 c 12.703 0 23 -10.297 23 -23 0 -6.081 -2.364 -11.606 -6.219 -15.719 z" transform="scale(0.28222223,0.28222223)" style="fill:#000;opacity:0.1;fill-opacity:1;stroke:none"/>
  <path transform="matrix(4.3274074,0,0,3.2455556,117.19278,-35.348334)" d="m -24 13 a 1.5 2 0 1 1 -3 0 1.5 2 0 1 1 3 0 z" style="fill:#000;opacity:0.2;fill-opacity:1;stroke:none"/>
 </g>
 <g>
  <path d="m -24 13 a 1.5 2 0 1 1 -3 0 1.5 2 0 1 1 3 0 z" transform="matrix(0,-4.3274075,3.2455556,0,-35.418894,-103.57556)" style="fill:url(#linearGradient4033);fill-opacity:1;stroke:none"/>
  <path d="m 40.03 7.531 c 3.712 4.085 5.969 9.514 5.969 15.469 c 0 12.703 -10.297 23 -23 23 c -5.954 0 -11.384 -2.256 -15.469 -5.969 c 4.178 4.291 10.01 6.969 16.469 6.969 c 12.703 0 23 -10.297 23 -23 c 0 -6.462 -2.677 -12.291 -6.969 -16.469 z" transform="scale(0.28222223,0.28222223)" style="fill:#000;opacity:0.1;fill-opacity:1;stroke:none"/>
  <g>
   <g>
    <path d="m 3.228 9.543 z m 4.904 -5.468 1.711 2.037 0.203 2.108 -0.794 0.961 -5.618 0.335 -0.123 0.309 6.02 -0.362 0.794 -0.961 -0.203 -2.108 -1.914 -2.275 z" style="visibility:visible;fill:#000;fill-opacity:0.098;stroke:none;display:inline;color:#000"/>
    <path d="m 3.295 9.476 2.215 -5.475 1.207 -0.774 1.152 0.63 1.892 2.25 0.197 2.054 -0.756 0.954 m -5.907 0.36" style="fill:url(#linearGradient3901);stroke:none;fill-rule:nonzero"/>
    <path d="m 6.731 3.184 -1.261 0.803 -2.245 5.56 6.03 -0.368 0.794 -0.959 -0.203 -2.108 -1.914 -2.275 z m 0.009 0.159 0.979 0.538 -2.037 0.141 z m 1.155 0.67 1.773 2.099 -0.238 1.244 -1.208 -0.423 -0.908 -1.535 0.097 -1.349 z m -0.635 0.044 -0.088 1.27 -1.588 1.01 0.018 -2.17 z m -1.799 0.344 -0.018 1.914 -1.896 2.813 z m 1.737 1.085 0.873 1.482 -0.908 1.411 -1.508 -1.923 z m 2.54 0.961 0.168 1.737 -0.644 0.803 z m -4.242 0.035 1.499 1.914 -3.395 0.908 z m 2.69 0.582 1.217 0.432 -0.291 1.552 -0.988 0.062 -0.855 -0.644 z m -1.085 1.446 0.794 0.609 -3.995 0.247 z" style="visibility:visible;fill:#5fb10b;fill-opacity:1;stroke:none;display:inline;color:#000"/>
   </g>
  </g>
 </g>
</svg>

<svg xmlns="http://www.w3.org/2000/svg" viewBox="0 0 48 48">
 <defs>
  <linearGradient id="linearGradient3764" x1="1" x2="47" gradientUnits="userSpaceOnUse" gradientTransform="matrix(0,-1,1,0,-1.5e-6,47.999998)">
   <stop style="stop-color:#e4e4e4;stop-opacity:1"/>
   <stop offset="1" style="stop-color:#eee;stop-opacity:1"/>
  </linearGradient>
  <linearGradient y2="3.621" x2="23.668" y1="36.865" x1="23.295" gradientTransform="scale(0.28222223,0.28222223)" gradientUnits="userSpaceOnUse" id="linearGradient3901">
   <stop style="stop-color:#5bcc01;stop-opacity:1"/>
   <stop offset="1" style="stop-color:#b7fb3b;stop-opacity:0"/>
  </linearGradient>
 </defs>
 <g>
  <path d="m 36.31 5 c 5.859 4.062 9.688 10.831 9.688 18.5 c 0 12.426 -10.07 22.5 -22.5 22.5 c -7.669 0 -14.438 -3.828 -18.5 -9.688 c 1.037 1.822 2.306 3.499 3.781 4.969 c 4.085 3.712 9.514 5.969 15.469 5.969 c 12.703 0 23 -10.298 23 -23 c 0 -5.954 -2.256 -11.384 -5.969 -15.469 c -1.469 -1.475 -3.147 -2.744 -4.969 -3.781 z m 4.969 3.781 c 3.854 4.113 6.219 9.637 6.219 15.719 c 0 12.703 -10.297 23 -23 23 c -6.081 0 -11.606 -2.364 -15.719 -6.219 c 4.16 4.144 9.883 6.719 16.219 6.719 c 12.703 0 23 -10.298 23 -23 c 0 -6.335 -2.575 -12.06 -6.719 -16.219 z" style="opacity:0.05"/>
  <path d="m 41.28 8.781 c 3.712 4.085 5.969 9.514 5.969 15.469 c 0 12.703 -10.297 23 -23 23 c -5.954 0 -11.384 -2.256 -15.469 -5.969 c 4.113 3.854 9.637 6.219 15.719 6.219 c 12.703 0 23 -10.298 23 -23 c 0 -6.081 -2.364 -11.606 -6.219 -15.719 z" style="opacity:0.1"/>
  <path d="m 31.25 2.375 c 8.615 3.154 14.75 11.417 14.75 21.13 c 0 12.426 -10.07 22.5 -22.5 22.5 c -9.708 0 -17.971 -6.135 -21.12 -14.75 a 23 23 0 0 0 44.875 -7 a 23 23 0 0 0 -16 -21.875 z" style="opacity:0.2"/>
 </g>
 <g>
  <path d="m 24 1 c 12.703 0 23 10.297 23 23 c 0 12.703 -10.297 23 -23 23 -12.703 0 -23 -10.297 -23 -23 0 -12.703 10.297 -23 23 -23 z" style="fill:url(#linearGradient3764);fill-opacity:1"/>
 </g>
 <g>
  <path d="m 40.03 7.531 c 3.712 4.084 5.969 9.514 5.969 15.469 0 12.703 -10.297 23 -23 23 c -5.954 0 -11.384 -2.256 -15.469 -5.969 4.178 4.291 10.01 6.969 16.469 6.969 c 12.703 0 23 -10.298 23 -23 0 -6.462 -2.677 -12.291 -6.969 -16.469 z" style="opacity:0.1"/>
 </g>
 <g transform="matrix(3.543307,0,0,3.543307,-1.65075e-4,8.725e-6)">
  <g>
   <path d="M 3.228,9.543 Z M 8.132,4.075 9.843,6.112 10.046,8.22 9.252,9.181 3.634,9.516 3.511,9.825 9.531,9.463 10.325,8.502 10.122,6.394 8.208,4.119 Z" style="visibility:visible;fill:#000;fill-opacity:0.098;stroke:none;display:inline;color:#000"/>
   <path d="M 3.295,9.476 5.51,4.001 6.717,3.227 7.869,3.857 9.761,6.107 9.958,8.161 9.202,9.115 m -5.907,0.36" style="fill:url(#linearGradient3901);stroke:none;fill-rule:nonzero"/>
   <path d="M 6.731,3.184 5.47,3.987 3.225,9.547 9.255,9.179 10.049,8.22 9.846,6.112 7.932,3.837 Z M 6.74,3.343 7.719,3.881 5.682,4.022 Z M 7.895,4.013 9.668,6.112 9.43,7.356 8.222,6.933 7.314,5.398 7.411,4.049 Z M 7.26,4.057 7.172,5.327 5.584,6.337 5.602,4.167 Z M 5.461,4.401 5.443,6.315 3.547,9.128 Z M 7.198,5.486 8.071,6.968 7.163,8.379 5.655,6.456 Z M 9.738,6.447 9.906,8.184 9.262,8.987 Z M 5.496,6.482 6.995,8.396 3.6,9.304 Z M 8.186,7.064 9.403,7.496 9.112,9.048 8.124,9.11 7.269,8.466 Z M 7.101,8.51 7.895,9.119 3.9,9.366 Z" style="visibility:visible;fill:#5fb10b;fill-opacity:1;stroke:none;display:inline;color:#000"/>
  </g>
 </g>
</svg>
